!!!OTL: EI LIPPLE LOSS DER NO ROTHA
!!!ARE: Europa, Mitteleuropa, Deutschland, Wuerttemberg
!!!SCT: E0535
!!!YEM: Copyright 1995, estate of Helmut Schaffrath.
**kern
*ICvox
*Ivox
*M6/8
*k[b-]
*F:
{8c
=1
4f
8f
8.e
16f
8g
=2
4.f
4c}
{8c
=3
4a
8a
8.g
16a
8b-
=4
4.a
4r}
{8c
=5
4f
8f
8.e
16f
8g
=6
4.f
4c}
{8c
=7
4a
8a
8.g
16a
8b-
=8
4.a
4.r}
=9
{8cc
8b-
8a
8.dd
16cc
8b-}
=10
{8b-
8a
8g
8.cc
16b-
8a
=11
8c
8d
8e
4f}
==
!!!AGN: Liebes - Lied
!!!ONB: ESAC (Essen Associative Code) Database: ERK1
!!!AMT: compound duple
!!!AIN: vox
!!!EED: Helmut Schaffrath
!!!EEV: 1.0
*-
